X:544
T:Tettiho
T:(SvL Skåne nr. 544)
R:Schottis
S:Efter Pehr Olsson (?)
S:uppt. John Enninger
O:Kvärlöv,  Skåne
B:Svenska Låtar, Skåne
Z:ABC-transkibering av Sven Midgren
M:2/4
L:1/8
K:D
|: Ad de/d/ | c/B/c/d/ e2 | A/c/e A/c/e | fd d2 :| 
|:a>f fd | g/f/g/a/ b2 | A/c/e A/c/e | fd d2 | 
a>f fd | g/f/g/a/ b2 | A/c/e A/c/e | dd d2 :|

